modules/hawcons-stroke/icons/folder-error.svg

<?xml version="1.0" encoding="UTF-8" standalone="no"?>
<svg width="32px" height="32px" viewBox="0 0 32 32" version="1.1" xmlns="http://www.w3.org/2000/svg" xmlns:xlink="http://www.w3.org/1999/xlink" xmlns:sketch="http://www.bohemiancoding.com/sketch/ns">
    <!-- Generator: Sketch 3.0.3 (7891) - http://www.bohemiancoding.com/sketch -->
    <title>icon 102 folder error</title>
    <desc>Created with Sketch.</desc>
    <defs></defs>
    <g id="Page-1" stroke="none" stroke-width="1" fill="none" fill-rule="evenodd" sketch:type="MSPage">
        <g id="icon-102-folder-error" sketch:type="MSArtboardGroup" fill="#929292">
            <path d="M20.7727273,26 L1.99296544,26 C1.44610862,26 1,25.5559546 1,25.0081969 L1,14 L28,14 L28,22.2307692 L25.5,18 L20.7727273,26 L20.7727273,26 Z M20.1818182,27 L1.99328744,27 C0.899712682,27 0,26.1085295 0,25.008845 L0,6.991155 C0,5.88967395 0.896666251,5 2.00276013,5 L13,5 L15,9 L26.9941413,9 C28.1029399,9 29,9.8932319 29,10.9950893 L29,23.9230769 L32,29 L19,29 L20.1818182,27 L20.1818182,27 L20.1818182,27 Z M1,13 L1,6.99180311 C1,6.45530558 1.44401481,6 1.99173483,6 L12.4000244,6 L14.3599854,10 L26.9970172,10 C27.5461723,10 28,10.4481055 28,11.0008717 L28,13 L1,13 L1,13 L1,13 Z M25.5,20 L30.25,28 L20.75,28 L25.5,20 L25.5,20 Z M25,22 L25,25 L26,25 L26,22 L25,22 L25,22 Z M25,26 L25,27 L26,27 L26,26 L25,26 L25,26 Z" id="folder-error" sketch:type="MSShapeGroup"></path>
        </g>
    </g>
</svg>

<svg width="32" height="32" viewBox="0 0 32 32" xmlns="http://www.w3.org/2000/svg"><path d="M20.773 26H1.993A.993.993 0 0 1 1 25.008V14h27v8.23L25.5 18l-4.727 8zm-.591 1H1.993A1.997 1.997 0 0 1 0 25.009V6.99C0 5.89.897 5 2.003 5H13l2 4h11.994A2 2 0 0 1 29 10.995v12.928L32 29H19l1.182-2zM1 13V6.992A1 1 0 0 1 1.992 6H12.4l1.96 4h12.637c.55 0 1.003.448 1.003 1v2H1zm24.5 7l4.75 8h-9.5l4.75-8zm-.5 2v3h1v-3h-1zm0 4v1h1v-1h-1z" fill="#929292" fill-rule="evenodd"/></svg>
